scale-unbalanced.svg

<svg fill="currentColor" viewBox="0 0 24 24"><path d="M13 20V8.8c.5-.2 1-.5 1.3-.9l3.5 1.3-2.9 6.8c-.5 2 1 3 3.5 3s4.1-1 3.5-3l-2.6-6.3.9.3.7-1.9L15 6c0-1.2-.7-2.4-2-2.9-1.2-.5-2.5 0-3.3.9L3.9 2l-.7 1.8 1.6.6L2.1 11c-.5 2 1 3 3.5 3s4.1-1 3.5-3L6.6 5.1 9 6c0 1.2.7 2.4 2 2.9V20H2v2h20v-2zm6.9-4h-3l1.5-3.8zM7.1 11h-3l1.5-3.8zm4-5.3c.2-.5.8-.8 1.3-.6s.8.8.6 1.3-.8.8-1.3.6-.8-.8-.6-1.3"/></svg>

<svg  viewBox="0 0 24 24" fill="currentColor"><path  d="M13 20V8.8C13.5 8.6 14 8.3 14.3 7.9L17.8 9.2L14.9 16C14.4 18 15.9 19 18.4 19S22.5 18 21.9 16L19.3 9.7L20.2 10L20.9 8.1L15 6C15 4.8 14.3 3.6 13 3.1C11.8 2.6 10.5 3.1 9.7 4L3.9 2L3.2 3.8L4.8 4.4L2.1 11C1.6 13 3.1 14 5.6 14S9.7 13 9.1 11L6.6 5.1L9 6C9 7.2 9.7 8.4 11 8.9V20H2V22H22V20H13M19.9 16H16.9L18.4 12.2L19.9 16M7.1 11H4.1L5.6 7.2L7.1 11M11.1 5.7C11.3 5.2 11.9 4.9 12.4 5.1S13.2 5.9 13 6.4 12.2 7.2 11.7 7 10.9 6.2 11.1 5.7Z"/></svg>
